X: 1
T: Miss Brady
M: 4/4
L: 1/8
R: reel
K: Edor
EFGA BABc|dDDD ADFD|EFGA BAGF|1GBAF GEED:|2GBAF GEE2||
efge fgaf|efge fddf|gfed (3efg fe|1dBAF GEE2:|2dBAF GEED||
&quot;(Variation 1st bar part A)&quot; [E4B4] B3c||
